src/logo.svg

<svg width="239" height="51" viewBox="0 0 239 51" fill="none" xmlns="http://www.w3.org/2000/svg">
<path d="M0.805132 10.0838L2.49547 0.0909076H45.5246L43.8343 10.0838H28.3975L21.6361 51H9.50542L16.2668 10.0838H0.805132ZM36.0823 51L44.534 0.0909076H65.5638C69.3754 0.0909076 72.5572 0.778644 75.1093 2.15412C77.6614 3.51302 79.476 5.46851 80.5532 8.0206C81.6304 10.5561 81.8789 13.5639 81.2989 17.044C80.7355 20.5573 79.476 23.5485 77.5205 26.0178C75.5816 28.4704 73.0792 30.343 70.0134 31.6357C66.9642 32.9283 63.5006 33.5746 59.6228 33.5746H46.3238L47.9644 23.88H58.9765C60.816 23.88 62.4069 23.6397 63.7492 23.1591C65.0915 22.6619 66.1604 21.9162 66.9559 20.9219C67.7679 19.911 68.3065 18.6184 68.5716 17.044C68.8202 15.4697 68.7042 14.1688 68.2236 13.1413C67.7596 12.0973 66.9393 11.3184 65.7627 10.8047C64.6027 10.2744 63.1112 10.0092 61.2883 10.0092H55.2229L48.387 51H36.0823ZM68.5965 27.733L77.4211 51H63.9978L55.4466 27.733H68.5965ZM86.9889 51H73.7645L99.393 0.0909076H115.774L124.5 51H111.275L105.682 12.9176H105.284L86.9889 51ZM88.5798 30.9645H116.222L114.631 40.3111H86.9889L88.5798 30.9645ZM122.981 51L131.432 0.0909076H152.462C156.274 0.0909076 159.447 0.82836 161.983 2.30327C164.518 3.77817 166.316 5.84138 167.377 8.4929C168.438 11.1444 168.678 14.2185 168.098 17.7152C167.534 21.245 166.267 24.3191 164.295 26.9375C162.339 29.5559 159.82 31.5859 156.738 33.0277C153.655 34.4695 150.15 35.1903 146.223 35.1903H133.272L134.888 25.4957H145.577C147.449 25.4957 149.065 25.1726 150.424 24.5263C151.799 23.88 152.901 22.9768 153.73 21.8168C154.559 20.6567 155.105 19.2895 155.371 17.7152C155.619 16.1409 155.52 14.782 155.072 13.6385C154.625 12.4785 153.821 11.5836 152.661 10.9538C151.518 10.3241 150.026 10.0092 148.187 10.0092H142.121L135.285 51H122.981ZM161.576 51L170.028 0.0909076H182.333L175.571 41.0071H196.75L195.06 51H161.576ZM194.43 51L202.882 0.0909076H238.379L236.688 10.0838H213.496L211.806 20.5241H233.184L231.493 30.5419H210.115L208.425 41.0071H231.617L229.927 51H194.43Z" fill="url(#paint0_linear_3157_1007)"/>
<defs>
<linearGradient id="paint0_linear_3157_1007" x1="176.5" y1="-11.3061" x2="157.383" y2="82.9667" gradientUnits="userSpaceOnUse">
<stop stop-color="#0538FF"/>
<stop offset="0.82" stop-color="#5799F7"/>
</linearGradient>
</defs>
</svg>

<svg xmlns="http://www.w3.org/2000/svg" width="239" height="51" fill="none"><path fill="url(#a)" d="M.805 10.084 2.495.09h43.03l-1.69 9.993H28.397L21.636 51H9.506l6.76-40.916zM36.082 51 44.534.09h21.03q5.717 0 9.545 2.064 3.828 2.039 5.444 5.867 1.616 3.803.746 9.023-.845 5.27-3.779 8.974-2.907 3.678-7.507 5.618-4.573 1.938-10.39 1.939h-13.3l1.641-9.695h11.013q2.759 0 4.772-.72 2.013-.747 3.207-2.238 1.217-1.517 1.616-3.878.372-2.361-.348-3.903-.697-1.566-2.461-2.336-1.74-.796-4.475-.796h-6.065L48.387 51zm32.515-23.267L77.42 51H63.998l-8.551-23.267zM86.989 51H73.764L99.394.09h16.381L124.5 51h-13.225l-5.593-38.082h-.398zm1.59-20.035h27.643l-1.591 9.346H86.989zM122.982 51 131.432.09h21.03q5.718 0 9.521 2.213 3.802 2.212 5.394 6.19 1.591 3.977.721 9.222-.845 5.295-3.803 9.223-2.934 3.927-7.557 6.09t-10.515 2.162h-12.951l1.616-9.694h10.689q2.808 0 4.847-.97 2.063-.97 3.306-2.71t1.641-4.1q.373-2.362-.299-4.078-.67-1.74-2.411-2.684-1.715-.945-4.474-.945h-6.066L135.285 51zm38.595 0L170.028.09h12.305l-6.762 40.917h21.179L195.06 51zm32.854 0L202.882.09h35.497l-1.691 9.994h-23.192l-1.69 10.44h21.378l-1.691 10.018h-21.378l-1.69 10.465h23.192L229.927 51z"/><defs><linearGradient id="a" x1="176.5" x2="157.383" y1="-11.306" y2="82.967" gradientUnits="userSpaceOnUse"><stop stop-color="#0538FF"/><stop offset=".82" stop-color="#5799F7"/></linearGradient></defs></svg>
